icons/sidebar-expand-24.svg

<svg xmlns="http://www.w3.org/2000/svg" width="24" height="24" viewBox="0 0 24 24"><path d="M11.28 9.53L8.81 12l2.47 2.47a.749.749 0 01-.326 1.275.749.749 0 01-.734-.215l-3-3a.75.75 0 010-1.06l3-3a.749.749 0 011.275.326.749.749 0 01-.215.734z"/><path d="M3.75 2h16.5c.966 0 1.75.784 1.75 1.75v16.5A1.75 1.75 0 0120.25 22H3.75A1.75 1.75 0 012 20.25V3.75C2 2.784 2.784 2 3.75 2zM3.5 3.75v16.5c0 .138.112.25.25.25H15v-17H3.75a.25.25 0 00-.25.25zm13 16.75h3.75a.25.25 0 00.25-.25V3.75a.25.25 0 00-.25-.25H16.5z"/></svg>

<svg xmlns="http://www.w3.org/2000/svg" width="24" height="24" viewBox="0 0 24 24">
  <defs/>
  <path d="M11.28,9.53 L8.81,12 L11.28,14.47 C11.481,14.657 11.563,14.939 11.495,15.204 C11.428,15.47 11.22,15.678 10.954,15.745 C10.689,15.813 10.407,15.731 10.22,15.53 L7.22,12.53 C6.928,12.237 6.928,11.763 7.22,11.47 L10.22,8.47 C10.407,8.269 10.689,8.187 10.954,8.255 C11.22,8.322 11.428,8.53 11.495,8.796 C11.563,9.061 11.481,9.343 11.28,9.53 Z"/>
  <path d="M3.75,2 L20.25,2 C21.216,2 22,2.784 22,3.75 L22,20.25 C22,21.216 21.216,22 20.25,22 L3.75,22 C2.784,22 2,21.216 2,20.25 L2,3.75 C2,2.784 2.784,2 3.75,2 Z M3.5,3.75 L3.5,20.25 C3.5,20.388 3.612,20.5 3.75,20.5 L15,20.5 L15,3.5 L3.75,3.5 C3.612,3.5 3.5,3.612 3.5,3.75 Z M16.5,20.5 L20.25,20.5 C20.388,20.5 20.5,20.388 20.5,20.25 L20.5,3.75 C20.5,3.612 20.388,3.5 20.25,3.5 L16.5,3.5 Z"/>
</svg>
